X:583
T:Pushee's
S:Bruce & Emmett's Drummers and Fifers Guide (1862), p. 58
M:2/4
L:1/16
Q:1/4=100
K:D
%%MIDI program 72
%%MIDI transpose 8
%%MIDI ratio 3 1
F>G|A>BG>A F>GE>F|D>FA>d f2d>f|e>fd>e c>dB>c|B>A^G>B A2F>G|A>BG>A F>GE>F|
D>FA>d f2d>f|e>df>e d>cB>A|{c}d2A>F D2::A>d|f>de>c d>BA>G|F>Ad>f e2a>f|
g>fe>d c>de>f|e>dc>B A2A>G|F>Ad>f a2f>a|b>ag>f e2f>e|d>fe>g f>ac>e|{c}d2A>F D2:|
